X:49
T:Reimstalder Chilbi
C:A Swiss Waltz
M:3/4
R:Waltz
L:1/8
Z:SG
K:A
AG|"D"F3G AG|F2E2A,2|D4A2|"D#m"F3^DA2|"E"E4AG|"A"F2E2A,2|"D"D4A2|F3G AG|
"D"F3G AG|F2E2A,2|D4A2|"D#m"F3^DA2|"E"E4AG|"A"F2E2A,2|"D"D2D3D|D2z2z2:||
|:"D"D4F2|A,4AG|F3GA2|D4F2|"A"E2F2G2|A4A2|"D"D4F2|A,4z2|
"D"D4F2|A,4AG|F3GA2|D4F2|"A"E2F2G2|A4A2|"D"D2D2zD|D4z2:|
